X: 35113
T: Rolling Waves, The
R: jig
M: 6/8
K: Dmajor
|:F3 EDE|F2D DED|EFA EFA|d2e fdA|
F3 EDE|F2D DED|AFE EFA|BAB d2B:|
|:ABd e2f|d2c B2A|ABd e2f|d2A B3|
ABd ede|f2B BAF|AFE EFA|BAB d2B:|

